X: 20
T: Master Crowley's
Z: Micah Walter
S: https://thesession.org/tunes/281#setting48475
R: reel
M: 4/4
L: 1/8
K: Edor
|:ED|B,E~E2 B,EGE|EDB,D A,DFD|B,E~E2 DGBG|FAdF FEED|B,E~E2
B,EGE|EDB,D A,B,DA,|B,E~E2 DGBG|1 (3.F.F.F GF E2:|2 FAdF FEEd||
|:eB (3.B.B.B gfeg|fdad bdad|ebgb fgec|dBAd BEEB|eB (3.B.B.B
gfeg|fdcd bdad|EFGA ABdB|1 AF~F2 GABd:|2 AF~F2 GFED||

